src/img/channel/channel_1.svg

<svg fill="none" height="99" viewBox="0 0 100 99" width="100" xmlns="http://www.w3.org/2000/svg"><path d="m0 0h100v98.4985h-100z" fill="#00387e"/><g fill="#fff"><path d="m28.2936 32.8738 47.4428-16.0637-15.4639 56.7572-18.024 5.0487 12.9126-47.0983-29.1948 9.924z"/><path d="m51.3305 35.3506-12.0105 44.1071-9.1276 2.5149 12.068-43.551z"/></g></svg>

<svg width="100" height="99" viewBox="0 0 100 99" fill="none" xmlns="http://www.w3.org/2000/svg">
<path d="M0 0H100V98.4985H0V0Z" fill="#00387E"/>
<path d="M28.2936 32.8738L75.7364 16.8101L60.2725 73.5673L42.2485 78.616L55.1611 31.5177L25.9663 41.4417L28.2936 32.8738Z" fill="white"/>
<path d="M51.3305 35.3506L39.32 79.4577L30.1924 81.9726L42.2604 38.4216L51.3305 35.3506Z" fill="white"/>
</svg>
